X: 07043
T: GIBSON-AIKEN POLKA
C: Bob McQuillen 12 Feb 89
B: Bob's Note Book 7 #43
%R: polka
Z: 2020 John Chambers <jc:trillian.mit.edu>
M: C
L: 1/8
K: D
A3G \
| F2D2 A,2DE | F2D2 A3G | F2D2 F2A2 | d4 A3G | F2D2 A,2DE | F2A2 d3f | e2d2 c2B2 | A4 A3G |
| F2D2 A,2DE | F2D2 A3G | F2D2 F2A2 | d3f e2d2 | B2d2 g3f | e2d2 c3B | A2d2 f3e | d4 ||
|| d3e \
| f2d2 f2ag | f2d2 A2de | f3e d2B2 | A3B A2G2 | F2D2 F2A2 | B2A2 d3e | f2a2 g2f2 | e4 d3e |
| f2df a2ag | f2d2 A2de | f3e d2B2 | A3B A2G2 | F2D2 F2A2 | d2f2 a2g2 | f4 e3e | d4 |]
%%begintext align
%% Dawn dances at the
%% Gibson-Aiken Center in Brattleboro, VT. are always such
%% wonderful affairs. Playing there New Year's Eve with
%% Applejack is always such fun. Michael McKernan
%% was the spark plug that made these dances happen, and
%% we all owe you a million thatnks, Michail!  Thanks 10^6!
%%endtext

%%sep 1 1 500

%%sep 1 1 500

